polaris-icons/icons/new-icons/ToolsMajor.svg

<svg width="20" height="20" viewBox="0 0 20 20" fill="none" xmlns="http://www.w3.org/2000/svg">
<path fill-rule="evenodd" clip-rule="evenodd" d="M6.5206 3.83054C7.06264 3.61696 7.65249 3.5 8.26786 3.5C10.9011 3.5 13.0357 5.63464 13.0357 8.26786C13.0357 8.58788 13.0041 8.90111 12.9436 9.20439L15.7256 11.9863C16.2214 12.4822 16.5 13.1547 16.5 13.856C16.5 15.3162 15.3162 16.5 13.856 16.5C13.1547 16.5 12.4822 16.2214 11.9863 15.7256L9.20439 12.9436C8.90111 13.0041 8.58788 13.0357 8.26786 13.0357C5.63464 13.0357 3.5 10.9011 3.5 8.26786C3.5 7.65211 3.6171 7.0619 3.83094 6.51958C3.92365 6.28444 4.12857 6.11182 4.37604 6.06038C4.62351 6.00895 4.88024 6.08562 5.05897 6.26434L6.7053 7.91055C6.86522 8.07045 7.08212 8.1603 7.30829 8.1603C7.77926 8.1603 8.16105 7.7785 8.16105 7.30757C8.16105 7.08141 8.0712 6.86451 7.91127 6.70459L6.26523 5.05867C6.08647 4.87992 6.00979 4.62315 6.06125 4.37564C6.11271 4.12814 6.2854 3.92321 6.5206 3.83054ZM8.32851 5.00055L8.97189 5.64389C9.41315 6.08511 9.66105 6.68356 9.66105 7.30757C9.66105 8.60697 8.60764 9.6603 7.30829 9.6603C6.68433 9.6603 6.08591 9.41245 5.64468 8.97125L5.00053 8.32714C5.03215 10.1046 6.48287 11.5357 8.26786 11.5357C8.59927 11.5357 8.91785 11.4866 9.21745 11.3958C9.48223 11.3156 9.76969 11.3876 9.96533 11.5832L13.047 14.6649C13.2616 14.8795 13.5525 15 13.856 15C14.4878 15 15 14.4878 15 13.856C15 13.5525 14.8795 13.2616 14.6649 13.047L11.5832 9.96533C11.3876 9.76969 11.3156 9.48223 11.3958 9.21745C11.4866 8.91785 11.5357 8.59927 11.5357 8.26786C11.5357 6.48333 10.1053 5.03289 8.32851 5.00055Z" fill="#4A4A4A"/>
</svg>

<svg viewBox="0 0 20 20" xmlns="http://www.w3.org/2000/svg"><path fill-rule="evenodd" d="M6.52 3.83a4.768 4.768 0 0 1 6.423 5.374l2.783 2.782a2.644 2.644 0 0 1-3.74 3.74l-2.782-2.782a4.768 4.768 0 0 1-5.373-6.424.75.75 0 0 1 1.228-.256l1.646 1.647a.853.853 0 0 0 1.206-1.206l-1.646-1.646a.75.75 0 0 1 .256-1.228Zm1.809 1.17.643.644a2.353 2.353 0 1 1-3.327 3.327l-.644-.644a3.268 3.268 0 0 0 4.216 3.069.75.75 0 0 1 .748.187l3.082 3.082a1.144 1.144 0 1 0 1.618-1.618l-3.082-3.082a.75.75 0 0 1-.187-.748 3.268 3.268 0 0 0-3.067-4.217Z" fill="#5C5F62"/></svg>
